lib/logotmp/nrk-logo-nrk-innlandet-with-bg.svg

<svg width="125" height="24" viewBox="0 0 125 24" fill="none" xmlns="http://www.w3.org/2000/svg">
<rect width="125" height="24" fill="#1767CE"/>
<path d="M6 17.9975V5.99856H10V17.9975H6ZM15.2438 7.90825L17.5081 17.9975H13.1992L10.4955 5.99856H12.9122C13.4663 5.99137 14.0041 6.18672 14.4245 6.54786C14.8456 6.89386 15.0849 7.37417 15.2438 7.90825ZM18 17.9975V5.99856H22V17.9975H18ZM25.0105 10.5616C24.5862 10.5657 24.1687 10.4547 23.8025 10.2404C23.4412 10.0316 23.1411 9.73143 22.9323 9.37007C22.7178 9.0038 22.6068 8.58624 22.611 8.16179C22.6061 7.73994 22.7172 7.32485 22.9323 6.9619C23.1433 6.60446 23.4431 6.30757 23.8025 6.09999C24.1689 5.88598 24.5862 5.77499 25.0105 5.77886C25.4322 5.77432 25.8471 5.8854 26.2102 6.09999C26.566 6.30939 26.8626 6.60604 27.072 6.9619C27.2868 7.32496 27.3979 7.73997 27.3933 8.16179C27.3973 8.5862 27.2863 9.0037 27.072 9.37007C26.8649 9.72985 26.5679 10.0298 26.2102 10.2404C25.8471 10.4554 25.4324 10.5666 25.0105 10.5616ZM28 17.9975V5.99856H32V17.9975H28ZM36.9737 12.5557C36.9848 12.5673 37.0693 12.7054 37.2272 12.9697C37.3851 13.2341 37.5906 13.5722 37.8439 13.9838C38.0974 14.3952 38.3649 14.8317 38.6463 15.2935C38.9278 15.7552 39.1926 16.1918 39.4408 16.6032C39.6881 17.0147 39.9697 17.4794 40.2857 17.9975H35.9598C35.6893 17.5581 35.4441 17.1609 35.2245 16.806C35.0048 16.4511 34.7713 16.0681 34.5238 15.6568C34.2758 15.246 34.0306 14.846 33.7882 14.4569C33.5458 14.0679 33.3375 13.7271 33.1633 13.4345C32.9883 13.1418 32.8671 12.9446 32.7997 12.843C32.6325 12.5909 32.5336 12.2998 32.5127 11.998C32.5294 11.7084 32.6226 11.4284 32.7828 11.1866C32.8503 11.0739 32.9743 10.8739 33.1545 10.5866C33.3348 10.2993 33.546 9.95853 33.7882 9.5642C34.0304 9.16987 34.2756 8.76708 34.5238 8.35585C34.772 7.94462 35.0055 7.55871 35.2245 7.19818C35.4445 6.83803 35.6897 6.43806 35.9598 5.99829H40.2857L36.9396 11.457C36.8361 11.619 36.7777 11.8058 36.7706 11.998C36.7818 12.1998 36.8528 12.3938 36.9737 12.5557Z" fill="white"/>
<g clip-path="url(#clip0_5918_1835)">
<path d="M45 5.99999H46.7733V17.9911H45V5.99999ZM56.1467 9.54666C55.7188 9.31021 55.1784 9.19199 54.5253 9.19199C54.0412 9.19199 53.5599 9.26799 53.0813 9.41999C52.6028 9.57199 52.1496 9.78873 51.7218 10.0702C51.5585 10.1772 51.4009 10.2954 51.2489 10.4164V9.20888L49.5262 9.46221V17.9911H51.2489V11.5761C51.415 11.4804 51.5839 11.3904 51.764 11.3115C52.0061 11.2046 52.2481 11.1117 52.4902 11.0329C52.7323 10.9541 52.9744 10.895 53.2164 10.8555C53.4585 10.8161 53.6921 10.7964 53.9173 10.7964C54.2326 10.7964 54.5028 10.8387 54.728 10.9231C54.9532 11.0075 55.139 11.1342 55.2853 11.3031C55.4317 11.472 55.5387 11.6859 55.6062 11.9449C55.6738 12.2038 55.7076 12.5078 55.7076 12.8569V17.9911H57.4302V12.5022C57.4302 11.7366 57.3233 11.1117 57.1093 10.6275C56.8954 10.1434 56.5745 9.7831 56.1467 9.54666ZM66.6009 9.54666C66.173 9.31021 65.6326 9.19199 64.9796 9.19199C64.4954 9.19199 64.0141 9.26799 63.5356 9.41999C63.057 9.57199 62.6039 9.78873 62.176 10.0702C62.0127 10.1772 61.8551 10.2954 61.7031 10.4164V9.20888L59.9804 9.46221V17.9911H61.7031V11.5761C61.8692 11.4804 62.0381 11.3904 62.2182 11.3115C62.4603 11.2046 62.7024 11.1117 62.9444 11.0329C63.1865 10.9541 63.4286 10.895 63.6707 10.8555C63.9127 10.8161 64.1464 10.7964 64.3716 10.7964C64.6868 10.7964 64.957 10.8387 65.1822 10.9231C65.4074 11.0075 65.5932 11.1342 65.7396 11.3031C65.8859 11.472 65.9929 11.6859 66.0604 11.9449C66.128 12.2038 66.1618 12.5078 66.1618 12.8569V17.9911H67.8844V12.5022C67.8844 11.7366 67.7775 11.1117 67.5636 10.6275C67.3496 10.1434 67.0287 9.7831 66.6009 9.54666ZM73.0947 16.7498C73.044 16.7554 72.9849 16.7582 72.9173 16.7582C72.771 16.7582 72.6471 16.7357 72.5458 16.6907C72.4444 16.6456 72.36 16.5752 72.2924 16.4795C72.2249 16.3838 72.177 16.2628 72.1489 16.1164C72.1207 15.9701 72.1067 15.7955 72.1067 15.5929V5.23999L70.384 5.49332V16.3529C70.384 16.6794 70.429 16.9581 70.5191 17.1889C70.6092 17.4197 70.7387 17.6083 70.9076 17.7547C71.0764 17.901 71.2763 18.0052 71.5071 18.0671C71.7379 18.129 71.9884 18.16 72.2587 18.16C72.3938 18.16 72.5233 18.1544 72.6471 18.1431C72.771 18.1318 72.892 18.115 73.0102 18.0924C73.1284 18.0699 73.227 18.0474 73.3058 18.0249L73.4747 16.6907L73.272 16.7244C73.2044 16.7357 73.1453 16.7441 73.0947 16.7498ZM82.7467 16.9102C82.8367 16.899 82.9324 16.8764 83.0338 16.8427L82.848 17.9742C82.7917 17.9967 82.727 18.0164 82.6538 18.0333C82.5806 18.0502 82.499 18.0699 82.4089 18.0924C82.3188 18.115 82.2259 18.129 82.1302 18.1347C82.0345 18.1403 81.936 18.1431 81.8347 18.1431C81.4744 18.1431 81.1535 18.084 80.872 17.9658C80.5905 17.8475 80.371 17.6561 80.2133 17.3915C80.1289 17.2508 80.0698 17.0847 80.0304 16.8933C79.9234 17.0172 79.8136 17.1382 79.6982 17.248C79.3886 17.5407 79.0339 17.7659 78.6342 17.9235C78.2345 18.0812 77.7588 18.16 77.2071 18.16C76.6104 18.16 76.1121 18.0474 75.7124 17.8222C75.3127 17.597 75.0144 17.3015 74.8173 16.9355C74.6203 16.5696 74.5218 16.1727 74.5218 15.7449C74.5218 15.2945 74.6484 14.8807 74.9018 14.5035C75.1551 14.1264 75.5407 13.8139 76.0587 13.5662C76.5766 13.3185 77.2296 13.1721 78.0178 13.1271L79.991 12.9948V12.5726C79.991 12.2461 79.96 11.9618 79.8924 11.7197C79.8249 11.4776 79.7123 11.2778 79.5547 11.1201C79.397 10.9625 79.1803 10.8443 78.9044 10.7655C78.6286 10.6867 78.288 10.6472 77.8827 10.6472C77.6575 10.6472 77.4295 10.6557 77.1987 10.6726C76.9679 10.6895 76.7342 10.7204 76.4978 10.7655C76.2613 10.8105 76.0164 10.8668 75.7631 10.9344C75.5098 11.0019 75.2424 11.0864 74.9609 11.1877L75.1636 9.75214C75.445 9.63955 75.7406 9.54103 76.0502 9.45658C76.3598 9.37214 76.6892 9.3074 77.0382 9.26236C77.3873 9.21732 77.7419 9.1948 78.1022 9.1948C78.5976 9.1948 79.0424 9.23984 79.4364 9.32992C79.8305 9.41999 80.1711 9.54947 80.4582 9.71836C80.7453 9.88725 80.979 10.0955 81.1591 10.3432C81.3393 10.591 81.4744 10.8781 81.5644 11.2046C81.6545 11.5311 81.6996 11.8914 81.6996 12.2855L81.6658 15.7646C81.6545 16.1812 81.7164 16.4795 81.8516 16.6597C81.9867 16.8398 82.2062 16.9299 82.5102 16.9299C82.5778 16.9299 82.6566 16.9243 82.7467 16.913V16.9102ZM79.9797 15.8997L79.9881 14.2249H78.5104C77.9587 14.2249 77.5196 14.2699 77.193 14.36C76.8665 14.4501 76.6301 14.5908 76.4837 14.7822C76.3373 14.9736 76.2641 15.2382 76.2641 15.576C76.2641 15.835 76.3204 16.0573 76.433 16.2431C76.5456 16.4289 76.7117 16.5724 76.9313 16.6738C77.1508 16.7751 77.4182 16.8258 77.7335 16.8258C77.9812 16.8258 78.2204 16.8032 78.4513 16.7582C78.6821 16.7132 78.9016 16.64 79.1099 16.5387C79.3182 16.4373 79.5153 16.3135 79.701 16.1671C79.7996 16.0883 79.8924 15.9982 79.9825 15.9025L79.9797 15.8997ZM91.2587 9.54384C90.8308 9.3074 90.2904 9.18918 89.6373 9.18918C89.1532 9.18918 88.6718 9.26518 88.1933 9.41718C87.7148 9.56918 87.2616 9.78592 86.8338 10.0674C86.6705 10.1744 86.5129 10.2926 86.3609 10.4136V9.20606L84.6382 9.4594V17.9883H86.3609V11.5733C86.527 11.4776 86.6959 11.3875 86.876 11.3087C87.1181 11.2018 87.3601 11.1089 87.6022 11.0301C87.8443 10.9512 88.0864 10.8921 88.3284 10.8527C88.5705 10.8133 88.8041 10.7936 89.0293 10.7936C89.3446 10.7936 89.6148 10.8358 89.84 10.9203C90.0652 11.0047 90.251 11.1314 90.3973 11.3003C90.5437 11.4692 90.6507 11.6831 90.7182 11.9421C90.7858 12.201 90.8196 12.505 90.8196 12.8541V17.9883H92.5422V12.4994C92.5422 11.7338 92.4353 11.1089 92.2213 10.6247C92.0074 10.1406 91.6865 9.78029 91.2587 9.54384ZM101.004 5.49332L102.726 5.25688V17.9911H101.324L101.113 17.2114C100.987 17.3043 100.86 17.3915 100.733 17.4675C100.351 17.704 99.9593 17.8785 99.5596 17.9911C99.1599 18.1037 98.7348 18.16 98.2844 18.16C97.5076 18.16 96.8404 17.9883 96.2831 17.6449C95.7258 17.3015 95.2979 16.8145 94.9996 16.184C94.7012 15.5535 94.552 14.8047 94.552 13.9378C94.552 12.9244 94.749 12.0659 95.1431 11.3622C95.5372 10.6585 96.0579 10.1209 96.7053 9.74932C97.3527 9.37777 98.0536 9.19199 98.808 9.19199C99.2359 9.19199 99.6271 9.22858 99.9818 9.30177C100.336 9.37495 100.66 9.46784 100.953 9.58043C100.97 9.58606 100.987 9.59451 101.004 9.60295V5.49332ZM101.004 16.1024V10.8978C100.916 10.8668 100.823 10.8302 100.742 10.8049C100.477 10.7204 100.215 10.6585 99.9564 10.6191C99.6975 10.5797 99.4273 10.56 99.1458 10.56C98.5603 10.56 98.0564 10.681 97.6342 10.9231C97.212 11.1652 96.8883 11.5198 96.6631 11.9871C96.4379 12.4544 96.3253 13.037 96.3253 13.7351C96.3253 14.4332 96.4267 14.9933 96.6293 15.4493C96.832 15.9053 97.1247 16.2431 97.5076 16.4627C97.8904 16.6822 98.352 16.792 98.8924 16.792C99.2527 16.792 99.6553 16.7104 100.1 16.5471C100.384 16.443 100.685 16.291 101.004 16.1024ZM112.598 12.0124C112.739 12.6204 112.769 13.3185 112.691 14.1067H106.588C106.611 14.5373 106.67 14.9089 106.771 15.2213C106.901 15.6154 107.092 15.9278 107.345 16.1587C107.599 16.3895 107.911 16.5527 108.283 16.6484C108.654 16.7441 109.093 16.792 109.6 16.792C109.848 16.792 110.095 16.7779 110.343 16.7498C110.591 16.7216 110.833 16.6766 111.069 16.6147C111.306 16.5527 111.534 16.4824 111.753 16.4035C111.973 16.3247 112.19 16.2459 112.404 16.1671L112.285 17.4675C111.981 17.6252 111.677 17.7547 111.373 17.856C111.069 17.9573 110.746 18.0333 110.402 18.084C110.059 18.1347 109.662 18.16 109.212 18.16C108.266 18.16 107.466 17.9939 106.813 17.6618C106.16 17.3296 105.668 16.8398 105.336 16.1924C105.003 15.545 104.837 14.7597 104.837 13.8364C104.837 13.1384 104.93 12.505 105.116 11.9364C105.302 11.3678 105.572 10.8809 105.927 10.4755C106.281 10.0702 106.712 9.75495 107.219 9.52977C107.725 9.30458 108.3 9.19199 108.941 9.19199C109.583 9.19199 110.155 9.29895 110.656 9.51288C111.157 9.72681 111.57 10.0449 111.897 10.4671C112.223 10.8893 112.457 11.4044 112.598 12.0124ZM106.839 11.9195C106.735 12.1954 106.667 12.5304 106.625 12.9075H111.067C111.067 12.5698 111.027 12.2517 110.943 11.9618C110.813 11.5114 110.585 11.1595 110.259 10.9062C109.932 10.6529 109.499 10.5262 108.958 10.5262C108.418 10.5262 108.001 10.6416 107.641 10.8724C107.281 11.1032 107.013 11.4523 106.839 11.9195ZM119.514 16.5809C119.435 16.5978 119.348 16.6147 119.252 16.6315C119.156 16.6484 119.061 16.6653 118.965 16.6822C118.869 16.6991 118.776 16.7104 118.686 16.716C118.596 16.7216 118.512 16.7244 118.433 16.7244C118.14 16.7244 117.89 16.6738 117.681 16.5724C117.473 16.4711 117.313 16.3219 117.2 16.1249C117.087 15.9278 117.031 15.6886 117.031 15.4071V10.7289H119.412L119.598 9.37777H117.031V6.70932L115.308 7.31732V9.37777H114.008L113.822 10.7289H115.308V15.7618C115.308 16.1446 115.359 16.4739 115.46 16.7498C115.562 17.0256 115.694 17.2536 115.857 17.4338C116.021 17.6139 116.212 17.7547 116.432 17.856C116.651 17.9573 116.885 18.0305 117.132 18.0755C117.38 18.1206 117.622 18.1431 117.859 18.1431C118.039 18.1431 118.216 18.1375 118.391 18.1262C118.565 18.115 118.726 18.0981 118.872 18.0755C119.018 18.053 119.156 18.0277 119.286 17.9995C119.415 17.9714 119.525 17.9461 119.615 17.9235L119.716 16.5218C119.66 16.5443 119.593 16.564 119.514 16.5809Z" fill="#D4EEFC"/>
</g>
<defs>
<clipPath id="clip0_5918_1835">
<rect width="74.7164" height="12.92" fill="white" transform="translate(45 5.23999)"/>
</clipPath>
</defs>
</svg>

<svg xmlns="http://www.w3.org/2000/svg" viewBox="0 0 125 24"><path fill="#1767CE" d="M0 0h125v24H0z"/><path fill="#fff" d="M6 17.997V6h4v11.998H6Zm9.244-10.089 2.264 10.09H13.2l-2.704-12h2.417a2.276 2.276 0 0 1 1.512.55c.422.346.66.826.82 1.36ZM18 17.998v-12h4v12h-4Zm7.01-7.436a2.381 2.381 0 0 1-2.078-1.192 2.345 2.345 0 0 1-.321-1.208 2.301 2.301 0 0 1 .321-1.2A2.41 2.41 0 0 1 26.21 6.1c.356.21.653.506.862.862.215.363.326.778.321 1.2a2.35 2.35 0 0 1-.321 1.208c-.207.36-.504.66-.862.87a2.3 2.3 0 0 1-1.2.322ZM28 17.997V6h4v11.998h-4Zm8.974-5.441c.01.011.095.15.253.414s.364.602.617 1.014a309.436 309.436 0 0 1 1.597 2.62c.247.41.529.875.845 1.393H35.96c-.27-.439-.516-.836-.736-1.191-.22-.355-.453-.738-.7-1.15-.248-.41-.493-.81-.736-1.2a60.12 60.12 0 0 1-.625-1.021 18.04 18.04 0 0 0-.363-.592 1.747 1.747 0 0 1-.287-.845c.016-.29.11-.57.27-.811.067-.113.191-.313.371-.6a182.106 182.106 0 0 0 1.37-2.23l.7-1.159.736-1.2h4.326l-3.346 5.459a1.079 1.079 0 0 0-.17.541c.012.202.083.396.204.558Z"/><g clip-path="url(#a)"><path fill="#D4EEFC" d="M45 6h1.773v11.991H45V6Zm11.147 3.547c-.428-.237-.969-.355-1.622-.355-.484 0-.965.076-1.444.228a5.485 5.485 0 0 0-1.36.65c-.162.107-.32.225-.472.346V9.21l-1.723.253v8.53h1.723v-6.416c.166-.096.335-.186.515-.264.242-.107.484-.2.726-.28a4.89 4.89 0 0 1 .726-.177c.242-.039.476-.059.701-.059.316 0 .586.043.811.127.225.085.411.211.557.38.147.169.254.383.321.642.068.259.102.563.102.912v5.134h1.722v-5.489c0-.765-.107-1.39-.32-1.875-.215-.484-.535-.844-.963-1.08Zm10.454 0c-.428-.237-.968-.355-1.621-.355-.485 0-.966.076-1.444.228a5.485 5.485 0 0 0-1.36.65c-.163.107-.32.225-.473.346V9.21l-1.723.253v8.53h1.723v-6.416c.166-.096.335-.186.515-.264.242-.107.484-.2.726-.28.242-.078.485-.137.727-.177.242-.039.475-.059.7-.059.316 0 .586.043.811.127.225.085.411.211.558.38.146.169.253.383.32.642.068.259.102.563.102.912v5.134h1.722v-5.489c0-.765-.106-1.39-.32-1.875-.214-.484-.535-.844-.963-1.08Zm6.494 7.203c-.051.005-.11.008-.178.008a.914.914 0 0 1-.371-.067.61.61 0 0 1-.254-.211.926.926 0 0 1-.143-.364 2.807 2.807 0 0 1-.042-.523V5.24l-1.723.253v10.86c0 .326.045.605.135.836.09.23.22.42.389.566.168.146.368.25.6.312.23.062.48.093.75.093a3.742 3.742 0 0 0 1.047-.135l.17-1.334-.203.033c-.068.012-.127.02-.177.026Zm9.652.16c.09-.011.185-.034.287-.067l-.186 1.131a1.335 1.335 0 0 1-.194.06c-.073.016-.155.036-.245.058-.09.023-.183.037-.279.043a5.06 5.06 0 0 1-.295.008c-.36 0-.681-.059-.963-.177a1.364 1.364 0 0 1-.659-.575 1.58 1.58 0 0 1-.183-.498 4.995 4.995 0 0 1-.332.355c-.31.293-.664.518-1.064.675-.4.158-.875.237-1.427.237-.597 0-1.095-.113-1.495-.338-.4-.225-.698-.52-.895-.886a2.472 2.472 0 0 1-.295-1.191c0-.45.126-.864.38-1.241.253-.378.639-.69 1.157-.938s1.17-.394 1.959-.439l1.973-.132v-.422c0-.327-.031-.611-.099-.853a1.337 1.337 0 0 0-.337-.6c-.158-.157-.375-.276-.65-.354a3.774 3.774 0 0 0-1.022-.119c-.225 0-.453.009-.684.026-.231.017-.465.047-.701.092a10.372 10.372 0 0 0-1.537.423l.203-1.436a8.18 8.18 0 0 1 .886-.295c.31-.085.64-.15.988-.195.35-.045.704-.067 1.064-.067.496 0 .94.045 1.334.135.394.09.735.22 1.022.388.287.17.521.377.701.625.18.248.315.535.405.862.09.326.136.686.136 1.08l-.034 3.48c-.011.416.05.715.186.895.135.18.354.27.658.27.068 0 .147-.006.237-.017v-.003ZM79.98 15.9l.008-1.675H78.51c-.551 0-.99.045-1.317.135-.326.09-.563.23-.71.422-.146.192-.219.456-.219.794 0 .259.056.481.169.667.113.186.279.33.498.43.22.102.487.153.803.153.247 0 .486-.023.717-.068.231-.045.45-.118.659-.22a2.746 2.746 0 0 0 .873-.636l-.003-.002Zm11.279-6.356c-.428-.237-.969-.355-1.622-.355-.484 0-.965.076-1.444.228a5.484 5.484 0 0 0-1.36.65c-.162.107-.32.226-.472.347V9.206l-1.723.253v8.53h1.723v-6.416a5.22 5.22 0 0 1 .515-.264c.242-.107.484-.2.726-.279.242-.079.484-.138.726-.177.242-.04.476-.06.701-.06.316 0 .586.043.811.127.225.085.411.211.557.38.147.17.254.383.321.642.068.259.102.563.102.912v5.134h1.722V12.5c0-.765-.107-1.39-.32-1.874-.215-.484-.535-.845-.963-1.081Zm9.745-4.05 1.722-.237V17.99h-1.402l-.211-.78c-.126.093-.253.18-.38.257a4.593 4.593 0 0 1-1.173.523c-.4.113-.825.169-1.276.169-.776 0-1.444-.172-2-.515A3.353 3.353 0 0 1 95 16.184c-.299-.63-.448-1.38-.448-2.246 0-1.014.197-1.872.591-2.576.394-.704.915-1.241 1.562-1.613a4.153 4.153 0 0 1 2.103-.557 5.818 5.818 0 0 1 2.145.388c.017.006.034.015.051.023v-4.11Zm0 10.608v-5.204c-.088-.031-.181-.068-.262-.093a5.128 5.128 0 0 0-1.596-.245c-.586 0-1.09.121-1.512.363a2.382 2.382 0 0 0-.97 1.064c-.226.467-.339 1.05-.339 1.748s.102 1.258.304 1.714c.203.456.496.794.879 1.014.382.22.844.329 1.384.329.36 0 .763-.082 1.208-.245a5.6 5.6 0 0 0 .904-.445Zm11.594-4.09c.141.608.171 1.306.093 2.095h-6.103c.023.43.082.802.183 1.114.13.394.321.707.574.938.254.23.566.394.938.49.371.095.81.143 1.317.143.248 0 .495-.014.743-.042.248-.028.49-.073.726-.135.237-.062.465-.133.684-.211.22-.08.437-.158.651-.237l-.119 1.3a6.32 6.32 0 0 1-.912.389 5.686 5.686 0 0 1-.971.228 8.23 8.23 0 0 1-1.19.076c-.946 0-1.746-.166-2.399-.498a3.3 3.3 0 0 1-1.477-1.47c-.333-.647-.499-1.432-.499-2.356 0-.698.093-1.331.279-1.9a4.14 4.14 0 0 1 .811-1.46 3.67 3.67 0 0 1 1.292-.946c.506-.225 1.081-.338 1.722-.338.642 0 1.214.107 1.715.32.501.215.914.533 1.241.955.326.422.56.937.701 1.545Zm-5.759-.093c-.104.276-.172.611-.214.989h4.442c0-.338-.04-.656-.124-.946-.13-.45-.358-.803-.684-1.056-.327-.253-.76-.38-1.301-.38-.54 0-.957.116-1.317.346-.36.231-.628.58-.802 1.047Zm12.675 4.662a7.13 7.13 0 0 1-.262.05l-.287.051a2.51 2.51 0 0 1-.279.034 4.08 4.08 0 0 1-.253.008c-.293 0-.543-.05-.752-.152a1.093 1.093 0 0 1-.481-.447 1.421 1.421 0 0 1-.169-.718V10.73h2.381l.186-1.351h-2.567V6.709l-1.723.608v2.06h-1.3l-.186 1.352h1.486v5.033c0 .383.051.712.152.988.102.276.234.504.397.684.164.18.355.32.575.422a2.9 2.9 0 0 0 .7.22c.248.045.49.067.727.067.18 0 .357-.006.532-.017.174-.011.335-.028.481-.05.146-.023.284-.048.414-.076.129-.029.239-.054.329-.076l.101-1.402a1.243 1.243 0 0 1-.202.059Z"/></g><defs><clipPath id="a"><path fill="#fff" d="M45 5.24h74.716v12.92H45z"/></clipPath></defs></svg>
